outputs/icons/navigation/apps_sharp.svg

<svg xmlns="http://www.w3.org/2000/svg" width="1200" height="1200" fill="none"><g clip-path="url(#a)"><path fill="#000" d="M200 400h200V200H200zm300 600h200V800H500zm-300 0h200V800H200zm0-300h200V500H200zm300 0h200V500H500zm300-500v200h200V200zM500 400h200V200H500zm300 300h200V500H800zm0 300h200V800H800z"/></g><defs><clipPath id="a"><path fill="#fff" d="M0 0h1200v1200H0z"/></clipPath></defs></svg>

<svg width="1200" height="1200" viewBox="0 0 1200 1200" fill="none" xmlns="http://www.w3.org/2000/svg"><g clip-path="url(#clip0_117_978)"><path d="M200 400H400V200H200V400ZM500 1000H700V800H500V1000ZM200 1000H400V800H200V1000ZM200 700H400V500H200V700ZM500 700H700V500H500V700ZM800 200V400H1000V200H800ZM500 400H700V200H500V400ZM800 700H1000V500H800V700ZM800 1000H1000V800H800V1000Z" fill="black"/></g><defs><clipPath id="clip0_117_978"><path width="24" fill="white" d="M0 0H1200V1200H0V0z"/></clipPath></defs></svg>
